packages/components/Atoms/Icon/assets/img/rpl_icon_accessible.svg

<svg width="10" height="10" viewBox="0 0 10 10" overflow="visible" xmlns="http://www.w3.org/2000/svg">
  <path d="M9.68947 7.5326L9.96734 8.09242C10.0441 8.24701 9.98096 8.43453 9.82637 8.51127L8.54775 9.15357C8.2343 9.30918 7.8533 9.17689 7.70422 8.85953L6.47811 6.25H3.75C3.43896 6.25 3.17522 6.02131 3.13127 5.71338C2.88498 3.98781 2.76184 3.12502 2.76184 3.12502H4.0242H6.5625C6.7351 3.12502 6.875 3.26492 6.875 3.43752V4.06252C6.875 4.23512 6.7351 4.37502 6.5625 4.37502H4.20277L4.29207 5.00002H6.875C7.11723 5.00002 7.33765 5.14 7.44066 5.35924L8.564 7.75L9.27061 7.39162C9.42519 7.31488 9.61273 7.37801 9.68947 7.5326ZM3.75 2.5C3.05964 2.5 2.5 1.94036 2.5 1.25C2.5 0.559644 3.05964 0 3.75 0C4.44036 0 5 0.559644 5 1.25C5 1.94036 4.44036 2.5 3.75 2.5ZM6.08121 6.875H5.60258C5.45047 7.93367 4.53758 8.75 3.4375 8.75C2.23131 8.75 1.25 7.76869 1.25 6.5625C1.25 5.75185 1.69324 5.04279 2.35008 4.66492C2.27758 4.15779 2.21641 3.73016 2.16477 3.36935C0.897578 3.87625 0 5.11646 0 6.5625C0 8.45795 1.54205 10 3.4375 10C4.84121 10 6.0509 9.15414 6.58418 7.94547L6.08121 6.875Z"
    fill="inherit" />
</svg>

<svg width="10" height="10" overflow="visible" xmlns="http://www.w3.org/2000/svg"><path d="M9.69 7.533l.277.56a.312.312 0 01-.14.418l-1.28.643a.625.625 0 01-.843-.294L6.478 6.25H3.75a.625.625 0 01-.619-.537l-.37-2.588H6.563c.173 0 .313.14.313.313v.625c0 .172-.14.312-.313.312h-2.36l.09.625h2.583c.242 0 .463.14.566.36l1.123 2.39.707-.358a.313.313 0 01.418.14zM3.75 2.5a1.25 1.25 0 110-2.5 1.25 1.25 0 010 2.5zm2.331 4.375h-.478A2.19 2.19 0 013.438 8.75 2.19 2.19 0 011.25 6.562c0-.81.443-1.52 1.1-1.897l-.185-1.296A3.443 3.443 0 000 6.562 3.441 3.441 0 003.438 10a3.442 3.442 0 003.146-2.055l-.503-1.07z" fill="inherit"/></svg>
